X: 29023
T: Neckbelly
R: reel
M: 4/4
K: Emajor
|:~B3c ~B3c|BAGF GEGA|BEcE BEcE|BAGE FGAc|
BAGA BAGA|BAGF GEGA|B~e3 eBce|1 BAGF E4:|2 BAGF E2ef||
|:g4g2fe|fccB c2ec|cBBG BGBc|Bceg f2ef|
g2fe g2fe|fccB c2ec|cBBG BGBc|1 Bcef e2ef:|2 Bcef e4||
|:c2ec c2ec|BGFG E2B,E|C~E3 EGBc|Bcef gefg|
eccB c2ec|BGFG E2B,E|C~E3 EGBc|1 Bcef e4:|2 Bcef e2GA||

